X:4482
T:Murroe, The
O:england
R:polka
M:2/4
L:1/8
K:G
Bd G>A|Bd GB|A2 FA|GF ED|Bd G>A|Bd GB|A2 FA|AG G>A:|
|:Bd ef|g2 ga|f/e/d ef|ed BA|Bd ef|g2 ga|f/e/d ef|e2 ed:|


